X: 6
T:Lay Dee at Dee
M:4/4
L:1/8
S:Shetland
R:Reel
K:D
A|"D"defe d2d2|"D"ABAG FE D2|"D"d2 ef gfed|"A"efed cB A2|!
"D"defe d2d2|"D"ABAG FE D2|"D"d2 ef "A"gfec |"D"e2 d2 d3:|!
|:e|"D"f2 df afdf|"D"afdf "G"g3 f|"A"e2 ce eece|"A"edcB A3 e|!
"D"f2 df afdf|"D"afdf "G"g3 f|"A"efgf edcB|"D"A2 d2 d2:||
